SVG/square-o.svg

<?xml version="1.0" encoding="utf-8"?>
<!-- Generated by IcoMoon.io -->
<!DOCTYPE svg PUBLIC "-//W3C//DTD SVG 1.1//EN" "http://www.w3.org/Graphics/SVG/1.1/DTD/svg11.dtd">
<svg version="1.1" xmlns="http://www.w3.org/2000/svg" xmlns:xlink="http://www.w3.org/1999/xlink" width="11" height="14" viewBox="0 0 11 14">
<path fill="#444444" d="M8.75 2h-6.5q-0.516 0-0.883 0.367t-0.367 0.883v6.5q0 0.516 0.367 0.883t0.883 0.367h6.5q0.516 0 0.883-0.367t0.367-0.883v-6.5q0-0.516-0.367-0.883t-0.883-0.367zM11 3.25v6.5q0 0.93-0.66 1.59t-1.59 0.66h-6.5q-0.93 0-1.59-0.66t-0.66-1.59v-6.5q0-0.93 0.66-1.59t1.59-0.66h6.5q0.93 0 1.59 0.66t0.66 1.59z"></path>
</svg>

<svg xmlns="http://www.w3.org/2000/svg" viewBox="0 0 11 14"><path d="M8.75 2h-6.5q-.516 0-.883.367T1 3.25v6.5q0 .516.367.883T2.25 11h6.5q.516 0 .883-.367T10 9.75v-6.5q0-.516-.367-.883T8.75 2zM11 3.25v6.5q0 .93-.66 1.59T8.75 12h-6.5q-.93 0-1.59-.66T0 9.75v-6.5q0-.93.66-1.59T2.25 1h6.5q.93 0 1.59.66T11 3.25z" /></svg>
